SVG_Azure_Grouped/Identity/Organisational Relationship.svg

<?xml version="1.0" encoding="UTF-8" standalone="no"?>
<!-- Generated by Microsoft Visio, SVG Export Organisational Relationship.svg Page-1 -->

<svg
   xmlns:dc="http://purl.org/dc/elements/1.1/"
   xmlns:cc="http://creativecommons.org/ns#"
   xmlns:rdf="http://www.w3.org/1999/02/22-rdf-syntax-ns#"
   xmlns:svg="http://www.w3.org/2000/svg"
   xmlns="http://www.w3.org/2000/svg"
   xmlns:sodipodi="http://sodipodi.sourceforge.net/DTD/sodipodi-0.dtd"
   xmlns:inkscape="http://www.inkscape.org/namespaces/inkscape"
   width="0.70864087in"
   height="0.78749907in"
   viewBox="0 0 51.022247 56.699951"
   xml:space="preserve"
   class="st6"
   version="1.1"
   id="svg41"
   sodipodi:docname="Organisational Relationship.svg"
   style="font-size:12px;overflow:visible;color-interpolation-filters:sRGB;fill:none;fill-rule:evenodd;stroke-linecap:square;stroke-miterlimit:3"
   inkscape:version="0.92.5 (2060ec1f9f, 2020-04-08)"><metadata
   id="metadata47"><rdf:RDF><cc:Work
       rdf:about=""><dc:format>image/svg+xml</dc:format><dc:type
         rdf:resource="http://purl.org/dc/dcmitype/StillImage" /></cc:Work></rdf:RDF></metadata><defs
   id="defs45" /><sodipodi:namedview
   pagecolor="#ffffff"
   bordercolor="#666666"
   borderopacity="1"
   objecttolerance="10"
   gridtolerance="10"
   guidetolerance="10"
   inkscape:pageopacity="0"
   inkscape:pageshadow="2"
   inkscape:window-width="640"
   inkscape:window-height="480"
   id="namedview43"
   showgrid="false"
   inkscape:zoom="1.4274543"
   inkscape:cx="34.016026"
   inkscape:cy="37.314369"
   inkscape:window-x="0"
   inkscape:window-y="0"
   inkscape:window-maximized="0"
   inkscape:current-layer="svg41" />
	<style
   type="text/css"
   id="style2">
	<![CDATA[
		.st1 {fill:#59b4d9;stroke:none;stroke-linecap:butt;stroke-width:33.288}
		.st2 {fill:#ffffff;stroke:none;stroke-linecap:butt;stroke-width:33.288}
		.st3 {fill:#0072c6}
		.st4 {stroke:none;stroke-linecap:butt;stroke-width:33.288}
		.st5 {fill:#ff8c00;stroke:none;stroke-linecap:butt;stroke-width:33.288}
		.st6 {fill:none;fill-rule:evenodd;font-size:12px;overflow:visible;stroke-linecap:square;stroke-miterlimit:3}
	]]>
	</style>

	<g
   id="g39"
   transform="translate(-33.287927,-33.284394)">
		<title
   id="title4">Page-1</title>
		<g
   id="group13355-1"
   transform="translate(33.2881,-34.0157)">
			<title
   id="title6">Organisational Relationship.13355</title>
			<g
   id="group13356-2">
				<title
   id="title8"> organizationalRelationships</title>
				<g
   id="shape13357-3"
   transform="translate(30.6419,-12.5546)">
					<title
   id="title10">path6</title>
					<path
   d="M 20.38,121.63 A 2.29239,2.34142 0 0 1 18.07,124 H 2.31 A 2.29239,2.34142 0 0 1 0,121.63 v -26.5 a 2.29239,2.34142 0 0 1 2.31,-2.36 h 15.66 a 2.29239,2.34142 0 0 1 2.32,2.36 v 26.5 z"
   class="st1"
   id="path12"
   inkscape:connector-curvature="0"
   style="fill:#59b4d9;stroke:none;stroke-width:33.2879982;stroke-linecap:butt" />
				</g>
				<g
   id="shape13358-5"
   transform="translate(34.3469,-22.0167)">
					<title
   id="title15">path8</title>
					<path
   d="m 0,106.96 h 5.56 v 6.63 H 0 Z m 7.41,0 h 5.56 v 6.63 H 7.41 Z M 0,117.37 H 5.56 V 124 H 0 Z m 7.41,0 h 5.56 V 124 H 7.41 Z"
   class="st2"
   id="path17"
   inkscape:connector-curvature="0"
   style="fill:#ffffff;stroke:none;stroke-width:33.2879982;stroke-linecap:butt" />
				</g>
				<g
   id="shape13359-7"
   transform="translate(0,-12.5546)">
					<title
   id="title20">path10</title>
					<path
   d="M 20.38,121.63 A 2.29239,2.34142 0 0 1 18.07,124 H 2.32 A 2.29239,2.34142 0 0 1 0,121.63 v -26.5 a 2.29239,2.34142 0 0 1 2.32,-2.36 h 15.65 a 2.29239,2.34142 0 0 1 2.32,2.36 z"
   class="st3"
   id="path22"
   inkscape:connector-curvature="0"
   style="fill:#0072c6" />
					<path
   d="M 20.38,121.63 A 2.29239,2.34142 0 0 1 18.07,124 H 2.32 A 2.29239,2.34142 0 0 1 0,121.63 v -26.5 a 2.29239,2.34142 0 0 1 2.32,-2.36 h 15.65 a 2.29239,2.34142 0 0 1 2.32,2.36"
   class="st4"
   id="path24"
   inkscape:connector-curvature="0"
   style="stroke:none;stroke-width:33.2879982;stroke-linecap:butt" />
				</g>
				<g
   id="shape13360-10"
   transform="translate(3.70501,-22.0167)">
					<title
   id="title27">path12</title>
					<path
   d="m 0,106.96 h 5.56 v 6.63 H 0 Z m 7.41,0 h 5.56 v 6.63 H 7.41 Z M 0,117.37 H 5.56 V 124 H 0 Z m 7.41,0 h 5.56 V 124 H 7.41 Z"
   class="st1"
   id="path29"
   inkscape:connector-curvature="0"
   style="fill:#59b4d9;stroke:none;stroke-width:33.2879982;stroke-linecap:butt" />
				</g>
				<g
   id="shape13361-12"
   transform="translate(14.0679)">
					<title
   id="title32">path14</title>
					<path
   d="M 11.91,124 A 11.4897,11.7354 -180 0 0 23.32,113.38 H 19.9 a 8.0178,8.18929 0 0 1 -7.93,7.18 7.70697,7.87181 0 0 1 -6.19,-3.14 l 3.77,-4.09 H 0 v 10.37 l 3.44,-3.74 a 10.9901,11.2252 -180 0 0 8.47,4.04 z m -0.5,-53.26 a 7.69864,7.86331 0 0 1 6.18,3.15 l -3.76,4.08 h 9.54 V 67.6 l -3.44,3.74 A 11.0096,11.245 -180 0 0 11.46,67.3 11.4869,11.7326 -180 0 0 0.06,77.97 h 3.41 a 8.01502,8.18646 0 0 1 7.94,-7.23 z"
   class="st5"
   id="path34"
   inkscape:connector-curvature="0"
   style="fill:#ff8c00;stroke:none;stroke-width:33.2879982;stroke-linecap:butt" />
				</g>
			</g>
		</g>
	</g>
</svg>

<?xml version="1.0" encoding="UTF-8" standalone="no"?>
<!DOCTYPE svg PUBLIC "-//W3C//DTD SVG 1.1//EN" "http://www.w3.org/Graphics/SVG/1.1/DTD/svg11.dtd">
<!-- Generated by Microsoft Visio, SVG Export Organisational Relationship.svg Page-1 -->
<svg xmlns="http://www.w3.org/2000/svg" xmlns:xlink="http://www.w3.org/1999/xlink" xmlns:ev="http://www.w3.org/2001/xml-events"
		width="1.63333in" height="1.72218in" viewBox="0 0 117.6 123.997" xml:space="preserve" color-interpolation-filters="sRGB"
		class="st6">
	<style type="text/css">
	<![CDATA[
		.st1 {fill:#59b4d9;stroke:none;stroke-linecap:butt;stroke-width:33.288}
		.st2 {fill:#ffffff;stroke:none;stroke-linecap:butt;stroke-width:33.288}
		.st3 {fill:#0072c6}
		.st4 {stroke:none;stroke-linecap:butt;stroke-width:33.288}
		.st5 {fill:#ff8c00;stroke:none;stroke-linecap:butt;stroke-width:33.288}
		.st6 {fill:none;fill-rule:evenodd;font-size:12px;overflow:visible;stroke-linecap:square;stroke-miterlimit:3}
	]]>
	</style>

	<g>
		<title>Page-1</title>
		<g id="group13053-1" transform="translate(33.2881,-34.0157)">
			<title>Organisational Relationship.13053</title>
			<g id="group13054-2">
				<title> organizationalRelationships</title>
				<g id="shape13055-3" transform="translate(30.6419,-12.5546)">
					<title>path6</title>
					<path d="M20.38 121.63 A2.29239 2.34142 0 0 1 18.07 124 L2.31 124 A2.29239 2.34142 0 0 1 0 121.63 L0 95.13 A2.29239
								 2.34142 0 0 1 2.31 92.77 L17.97 92.77 A2.29239 2.34142 0 0 1 20.29 95.13 L20.29 121.63 L20.38 121.63
								 Z" class="st1"/>
				</g>
				<g id="shape13056-5" transform="translate(34.3469,-22.0167)">
					<title>path8</title>
					<path d="M0 106.96 L5.56 106.96 L5.56 113.59 L0 113.59 L0 106.96 ZM7.41 106.96 L12.97 106.96 L12.97 113.59 L7.41
								 113.59 L7.41 106.96 ZM0 117.37 L5.56 117.37 L5.56 124 L0 124 L0 117.37 ZM7.41 117.37 L12.97 117.37
								 L12.97 124 L7.41 124 L7.41 117.37 Z" class="st2"/>
				</g>
				<g id="shape13057-7" transform="translate(0,-12.5546)">
					<title>path10</title>
					<path d="M20.38 121.63 A2.29239 2.34142 0 0 1 18.07 124 L2.32 124 A2.29239 2.34142 0 0 1 0 121.63 L0 95.13 A2.29239
								 2.34142 0 0 1 2.32 92.77 L17.97 92.77 A2.29239 2.34142 0 0 1 20.29 95.13 L20.38 121.63 Z"
							class="st3"/>
					<path d="M20.38 121.63 A2.29239 2.34142 0 0 1 18.07 124 L2.32 124 A2.29239 2.34142 0 0 1 0 121.63 L0 95.13 A2.29239
								 2.34142 0 0 1 2.32 92.77 L17.97 92.77 A2.29239 2.34142 0 0 1 20.29 95.13" class="st4"/>
				</g>
				<g id="shape13058-10" transform="translate(3.70501,-22.0167)">
					<title>path12</title>
					<path d="M0 106.96 L5.56 106.96 L5.56 113.59 L0 113.59 L0 106.96 ZM7.41 106.96 L12.97 106.96 L12.97 113.59 L7.41
								 113.59 L7.41 106.96 ZM0 117.37 L5.56 117.37 L5.56 124 L0 124 L0 117.37 ZM7.41 117.37 L12.97 117.37
								 L12.97 124 L7.41 124 L7.41 117.37 Z" class="st1"/>
				</g>
				<g id="shape13059-12" transform="translate(14.0679,0)">
					<title>path14</title>
					<path d="M11.91 124 A11.4897 11.7354 -180 0 0 23.32 113.38 L19.9 113.38 A8.0178 8.18929 0 0 1 11.97 120.56 A7.70697
								 7.87181 0 0 1 5.78 117.42 L9.55 113.33 L0 113.33 L0 123.7 L3.44 119.96 A10.9901 11.2252 -180 0 0
								 11.91 124 ZM11.41 70.74 A7.69864 7.86331 0 0 1 17.59 73.89 L13.83 77.97 L23.37 77.97 L23.37 67.6
								 L19.93 71.34 A11.0096 11.245 -180 0 0 11.46 67.3 A11.4869 11.7326 -180 0 0 0.06 77.97 L3.47 77.97
								 A8.01502 8.18646 0 0 1 11.41 70.74 Z" class="st5"/>
				</g>
			</g>
		</g>
	</g>
</svg>
